X: 172
T:Be A Good Boy... JaW.171
M:6/8
Q:100
C:"..and take care of yourself.
S:James Winder Ms, Lancashire, 1835-41
R:Air
O:England
A:Wyresdale,Lancashire
H:1/8
Z:vmp.Chris Partington, Aug 2004
K:D
A|Adf fed|dcB BAA|Adf fed|cde ecc|cde edc|!
def H"H"f2d|dde|edd d2|]
